svg/storefront.svg

<svg xmlns="http://www.w3.org/2000/svg" viewBox="0 0 24 24"><path d="M5.06 3c-.43 0-.84.14-1.22.42s-.6.64-.7 1.08L2.11 8.91c-.25 1.09-.05 2.01.58 2.82.12.12.24.24.35.34.59.57 1.24.93 2.18.93s1.69-.41 2.25-.95c.63.62 1.39.95 2.33.95.84 0 1.64-.37 2.2-.93.68.63 1.45.93 2.3.93.87 0 1.61-.33 2.24-.95.57.57 1.32.95 2.27.95s1.62-.35 2.19-.94c.09-.09.18-.19.28-.29.66-.82.86-1.77.61-2.86L20.86 4.5c-.13-.44-.36-.8-.73-1.08A1.88 1.88 0 0 0 18.94 3m-.05 1.97 1.08 4.41c.09.43 0 .82-.28 1.17-.25.31-.56.45-.94.45-.31 0-.58-.1-.8-.34-.22-.23-.34-.5-.37-.82L16.97 5M5.06 5h1.97l-.61 4.84C6.3 10.63 5.91 11 5.25 11c-.41 0-.72-.14-.94-.45-.28-.35-.37-.74-.28-1.17M9.05 5H11v4.7c0 .35-.11.65-.36.92-.25.26-.56.38-.94.38-.34 0-.63-.12-.86-.41S8.5 10 8.5 9.66V9.5M13 5h1.95l.55 4.5c.08.42 0 .77-.29 1.07-.26.3-.6.43-1.01.43-.31 0-.59-.12-.84-.38A1.3 1.3 0 0 1 13 9.7M3 14.03V19c0 1.11.89 2 2 2h14a2 2 0 0 0 2-2v-4.95c-.55.58-1.25.91-2 .95-1 .03-1.75-.26-2.46-.95-.6.6-1.4.95-2.24.95-.9 0-1.7-.36-2.3-.93-.57.57-1.35.93-2.22.93-.91 0-1.71-.35-2.31-.95-.58.59-1.37.95-2.24.95-.9 0-1.57-.35-2.23-.97"/></svg>

<?xml version="1.0" encoding="UTF-8"?><!DOCTYPE svg PUBLIC "-//W3C//DTD SVG 1.1//EN" "http://www.w3.org/Graphics/SVG/1.1/DTD/svg11.dtd"><svg xmlns="http://www.w3.org/2000/svg" xmlns:xlink="http://www.w3.org/1999/xlink" version="1.1" id="mdi-storefront" width="24" height="24" viewBox="0 0 24 24"><path d="M5.06 3C4.63 3 4.22 3.14 3.84 3.42C3.46 3.7 3.24 4.06 3.14 4.5L2.11 8.91C1.86 10 2.06 10.92 2.69 11.73C2.81 11.85 2.93 11.97 3.04 12.07C3.63 12.64 4.28 13 5.22 13C6.16 13 6.91 12.59 7.47 12.05C8.1 12.67 8.86 13 9.8 13C10.64 13 11.44 12.63 12 12.07C12.68 12.7 13.45 13 14.3 13C15.17 13 15.91 12.67 16.54 12.05C17.11 12.62 17.86 13 18.81 13C19.76 13 20.43 12.65 21 12.06C21.09 11.97 21.18 11.87 21.28 11.77C21.94 10.95 22.14 10 21.89 8.91L20.86 4.5C20.73 4.06 20.5 3.7 20.13 3.42C19.77 3.14 19.38 3 18.94 3M18.89 4.97L19.97 9.38C20.06 9.81 19.97 10.2 19.69 10.55C19.44 10.86 19.13 11 18.75 11C18.44 11 18.17 10.9 17.95 10.66C17.73 10.43 17.61 10.16 17.58 9.84L16.97 5M5.06 5H7.03L6.42 9.84C6.3 10.63 5.91 11 5.25 11C4.84 11 4.53 10.86 4.31 10.55C4.03 10.2 3.94 9.81 4.03 9.38M9.05 5H11V9.7C11 10.05 10.89 10.35 10.64 10.62C10.39 10.88 10.08 11 9.7 11C9.36 11 9.07 10.88 8.84 10.59C8.61 10.3 8.5 10 8.5 9.66V9.5M13 5H14.95L15.5 9.5C15.58 9.92 15.5 10.27 15.21 10.57C14.95 10.87 14.61 11 14.2 11C13.89 11 13.61 10.88 13.36 10.62C13.11 10.35 13 10.05 13 9.7M3 14.03V19C3 20.11 3.89 21 5 21C9.67 21 14.33 21 19 21C20.1 21 21 20.11 21 19V14.05C20.45 14.63 19.75 14.96 19 15C18 15.03 17.25 14.74 16.54 14.05C15.94 14.65 15.14 15 14.3 15C13.4 15 12.6 14.64 12 14.07C11.43 14.64 10.65 15 9.78 15C8.87 15 8.07 14.65 7.47 14.05C6.89 14.64 6.1 15 5.23 15C4.33 15 3.66 14.65 3 14.03Z" /></svg>
